X: 8078
T: Conor Whelton's
R: jig
M: 6/8
K: Dmixolydian
B3 ABG|AGE GED|GBd g2d|(efg)e age|
d3 edB|AdB AGE|G(Bcd) (efg)e|dBA G3|
GBd e_BB|dBA AGE|GBd (efg)d|eaa aga|
bag age|dge dBA|GBd ege|dBA G3|

